X:19
T:Little Ben
M:2/4
Q:1/4=103
L:1/8
K:D
"D"DD/D/ DD|FD/D/ DD|d2 a2|"A7"g2 e2|
"D"AA/A/ AA|A2 ge|"D"d2 d2| d4:|
|:"A"Ae/f/ g/f/e/d/|cecA|"D"FDFA|d/e/f/g/ af|
ge/f/ g/f/e/d/|"A"cecA|d2 d2|d4:|
|:"D"a2 a/b/a/g/|f2 f2|"A7"g2 g2|e2 c2|
"D"f2 f/g/f/e/|df df|"A"e2 e2|"D"d4:|
